X: 1883
T: Spookendykes Waltz
B: australian traditional tunes wiki
M:3/4
R: Waltz
Q: 1/4=100
K:G
V:1 
Bc||"G"d3cB2|d2b2a2|g6-|g2B2c2|d3cB2|d2z2g2|"D"A6-|A4B2|
c3BA2|c2c'2b2|a6-|a4g2|f2z2e2|d2z2c2|"G"B6-|B4c2|
"G"d3c Bc|d2b2a2|g6-|g2B2c2|d3cB2|d2z2g2|"D"A6-|A4B2|
c3BA2|c2c'2b2|a6-|a4g2|f3ed2|d2e2f2|"G"g6-|g4d2||
G2B2d2|e2d2B2|G2B2d2|"D"A6|F2A2c2|f4e2|d4c2|"G"B6|
"G"G2BGd2|e2d2B2|G2BGd2|"D"A6|F2A2c2|f2z2e2|d2b2a2|"G"g4g2||
"C"g2f2g2|a2g3e|c2e2g2|"G"d6|B2d2g2|"D"f4e2|d2g2a2|"G"b4a2|
"C"g3g fg|a2g2e2|c2e2g2|"G"d6|B2d2g2|"D"f4e2|d2b2a2|"G"g4||
% abcbook-tune_id 6342d53a7136d1d754cc6dfe


% abcbook-boost 0
% abcbook-tablature 
% abcbook-transpose 
% abcbook-lastupdated 1665324390307
% abcbook-soundfonts 
% abcbook-repeats 1
% NFF Book 2014

